!!!COM: Campenhout, Francois Van
!!!CDT: 1779-1884
!!!OTL: National Anthem, Belgium ("La Brabanconne")
!!!ENC: Davis, Matthew J.
!!Vocal Line Only (Dutch Words)
**kern
*clefG2
*k[b-e-]
*B-:
*M4/4
=1-
16f
8.d
16e-
=2
4f
8.g
16a
8.b-
16a
8.b-
16dd
=3
4.f
8g
4f
8.a
16b-
=4
4cc
8.cc
16cc
8.cc
16cc
8.b-
16a
=5
2b-
8.r
16a
8.b-
16g
=6
4f
8.g
16a
8.b-
16a
8.b-
16cc
=7
2a
4a
8.a
16g
=8
[4f
8.f]
16a
8.cc
16cc
8.b-
16g
=9
2f
4r
8.g
16f
=10
[4f
8.f]
16f
8.f
16f
8.g
16a
=11
2cc
4b-
8.r
16b-
=12
[8.a
16a]
8.a
16a
8.b-
16a
8.b-
16dd
=13
2cc
8.r
16f
8.f
16f
=14
4b-
8.b-
16b-
8.b-
16b-
8.cc
16b-
=15
4..a
16b-
4cc
8.r
16cc
=16
4..b-
16b-
8.b-
16dd
8.cc
16b-
=17
2a
8.r
16f
8.f
16f
=18
4b-
8.f
16f
8.dd
16cc
8.b-
16a
=19
2g
4g
8.r
16cc
=20
4..b-
16b-
8.a
16g
8.a
16cc
=21
2b-
4r
4f
=22
4..dd
16b-
8.a
16f
8.g
16f
=23
2f
4r
4f
=24
4..dd
16b-
8.a
16g
8.a
16cc
=25
2b-
8r
16r
==|!
*-
